X: 15
T: Fermoy Lasses, The
Z: ceili
S: https://thesession.org/tunes/219#setting49791
R: reel
M: 4/4
L: 1/8
K: Emin
"Em"[E2GB2]z2[E2GB]BA|:"Em"GE E/E/E BE E/E/E|GFGA BcBA|GE E/E/E BE E/E/E|"D"AFDF AcBA|
"Em"GE E/E/E BE E/E/E|GFGA B2BA|"G"G/G/G GF GBdB|"D"AFDF AcBA:|
|:"G"G/G/G BG dGBG|G/G/G Bd"C"efg2|"G"G/G/G BG dGBG|"D"AFDF AcBA|
"G"G/G/G BG dGBG|G/G/G Bd"C"efg2|"G"gage dedB|"D"AFDF AcBA:|

